images/icons/happy.svg

<svg width="568" height="568" xmlns="http://www.w3.org/2000/svg"><g opacity=".3"><path d="M409.858 209.297c0 18.056-14.627 32.692-32.683 32.692-18.047 0-32.683-14.636-32.683-32.692s14.636-32.683 32.683-32.683c18.056 0 32.683 14.627 32.683 32.683zm-187.919 0c0 18.056-14.636 32.692-32.683 32.692s-32.683-14.636-32.683-32.692 14.636-32.683 32.683-32.683 32.683 14.627 32.683 32.683zm-49.473 125.417c-7.434 0-13.468 6.025-13.468 13.468 0 58.138 46.762 105.439 104.245 105.439h45.397c57.483 0 104.245-47.04 104.245-104.855 0-7.443-6.025-13.477-13.468-13.477-7.435 0-13.459 6.034-13.459 13.477 0 42.955-34.685 77.91-77.317 77.91h-45.397c-42.632 0-77.308-35.206-77.308-78.493-.002-7.444-6.036-13.469-13.47-13.469z"/><path d="M283.642 567.419C127.239 567.419 0 440.144 0 283.705 0 127.275 127.239 0 283.642 0c156.394 0 283.633 127.275 283.633 283.705 0 156.438-127.239 283.714-283.633 283.714zm0-540.473c-141.552 0-256.705 115.181-256.705 256.759 0 141.588 115.154 256.768 256.705 256.768 141.543 0 256.696-115.181 256.696-256.768 0-141.579-115.153-256.759-256.696-256.759z"/></g></svg>

<svg width="568" height="568" viewBox="0 0 568 568" fill="#000" xmlns="http://www.w3.org/2000/svg">
<g opacity="0.3">
<path d="M409.858 209.297C409.858 227.353 395.231 241.989 377.175 241.989C359.128 241.989 344.492 227.353 344.492 209.297C344.492 191.241 359.128 176.614 377.175 176.614C395.231 176.614 409.858 191.241 409.858 209.297Z"/>
<path d="M221.939 209.297C221.939 227.353 207.303 241.989 189.256 241.989C171.209 241.989 156.573 227.353 156.573 209.297C156.573 191.241 171.209 176.614 189.256 176.614C207.303 176.614 221.939 191.241 221.939 209.297Z"/>
<path d="M172.466 334.714C165.032 334.714 158.998 340.739 158.998 348.182C158.998 406.32 205.76 453.621 263.243 453.621H308.64C366.123 453.621 412.885 406.581 412.885 348.766C412.885 341.323 406.86 335.289 399.417 335.289C391.982 335.289 385.958 341.323 385.958 348.766C385.958 391.721 351.273 426.676 308.641 426.676H263.244C220.612 426.676 185.936 391.47 185.936 348.183C185.934 340.739 179.9 334.714 172.466 334.714Z"/>
<path d="M283.642 567.419C127.239 567.419 0 440.144 0 283.705C0 127.275 127.239 0 283.642 0C440.036 0 567.275 127.275 567.275 283.705C567.275 440.143 440.036 567.419 283.642 567.419ZM283.642 26.946C142.09 26.946 26.937 142.127 26.937 283.705C26.937 425.293 142.091 540.473 283.642 540.473C425.185 540.473 540.338 425.292 540.338 283.705C540.338 142.126 425.185 26.946 283.642 26.946Z"/>
</g>
</svg>
